svg/color/ali.svg

<svg width="64" height="65" viewBox="0 0 64 65" fill="none" xmlns="http://www.w3.org/2000/svg">
<g clip-path="url(#clip0_11313_1812)">
<rect y="0.303711" width="64" height="64" rx="32" fill="white"/>
<path d="M34.8287 18.9839C33.979 18.2365 33.0542 17.4233 35.729 16.0771V16.0734C38.7154 14.6102 37.0757 13.2784 37.0757 13.2784C34.4983 11.1174 30.6527 7.8233 30.2888 5.93241H30.3152C30.2888 5.83108 30.2888 5.726 30.2888 5.62101C30.2888 5.53421 30.2823 5.44904 30.2757 5.36334C30.2722 5.31938 30.2689 5.2753 30.2663 5.23077C16.0283 6.07498 4.7467 18.2007 4.7467 32.3411C4.7467 46.4817 15.5593 58.101 29.3697 59.3765C29.3322 59.1403 28.9531 58.6862 28.8969 58.6224C28.4205 57.9321 26.4919 55.5348 23.8883 53.7752C23.8883 53.7752 20.6017 52.2106 23.712 50.1134C25.7155 48.7664 25.4377 48.0086 24.6386 47.172C24.2111 46.7219 23.6711 45.1996 26.4215 45.1685C24.8254 45.1853 24.1442 43.4799 25.4416 42.9887C26.7396 42.4934 28.2217 40.9327 26.8485 39.0119C25.251 36.5517 26.4948 35.9672 28.7865 34.8904C29.5248 34.5434 30.372 34.1452 31.268 33.6169C32.1873 33.0728 32.9526 32.6038 33.5753 32.1874C34.2283 31.7485 34.731 31.3732 35.1024 31.0355C36.3104 29.9325 36.1904 28.8332 35.4288 27.7977C35.2807 27.5956 35.0987 27.468 34.8995 27.3285C34.6699 27.1673 34.4174 26.9903 34.1681 26.6647C33.3089 25.543 32.9864 23.7271 35.2299 22.6804C35.5039 22.5527 35.4513 21.2584 34.1832 21.3709C34.1869 21.3447 34.1869 21.3222 34.1832 21.2997C35.2224 21.0558 35.5376 20.4329 35.5901 20.099C35.6497 19.7059 35.2483 19.3529 34.8287 18.9839Z" fill="#010642"/>
<path d="M31.9622 0.383484C14.3324 0.383484 0.0418701 14.674 0.0418701 32.3037C0.0418701 49.9334 14.3324 64.2239 31.9622 64.2239C49.5917 64.2239 63.8822 49.9334 63.8822 32.3037C63.8822 14.674 49.588 0.383484 31.9622 0.383484ZM35.7289 16.0772C31.7331 18.0882 35.7701 18.9098 35.5901 20.0992C35.5376 20.433 35.2223 21.0558 34.1832 21.2997C34.1869 21.3222 34.1869 21.3447 34.1832 21.371C35.4512 21.2585 35.5039 22.5529 35.2298 22.6804C32.9863 23.727 33.309 25.543 34.168 26.6648C34.6334 27.2726 35.1098 27.3626 35.4287 27.7978C36.1903 28.8333 36.3103 29.9325 35.1023 31.0357C34.7309 31.3732 34.2282 31.7484 33.5753 32.1873C32.9525 32.6039 32.1872 33.0728 31.2679 33.6169C27.5912 35.7854 24.7361 35.759 26.8484 39.0119C28.2216 40.9328 26.7396 42.4936 25.4415 42.9888C24.1433 43.4804 24.8263 45.1873 26.4245 45.1685C23.6706 45.1986 24.2108 46.7217 24.6386 47.172C25.4377 48.0086 25.7154 48.7665 23.7119 50.1134C20.6016 52.2106 23.8883 53.7751 23.8883 53.7751C26.4919 55.5347 28.4205 57.9321 28.8969 58.6224C28.9531 58.6862 29.3321 59.1403 29.3696 59.3766C15.5592 58.1009 4.74665 46.4817 4.74665 32.3412C4.74665 18.2007 16.0282 6.07501 30.2663 5.23081C30.2738 5.36212 30.2888 5.48971 30.2888 5.62103C30.2888 5.72602 30.2888 5.8311 30.3151 5.93244C30.3076 5.93244 30.3001 5.93244 30.2888 5.93244C30.6526 7.82333 34.4982 11.1174 37.0756 13.2784C37.0756 13.2784 38.7154 14.6103 35.7289 16.0734V16.0772Z" fill="#29ABE2"/>
</g>
<rect x="0.5" y="0.803711" width="63" height="63" rx="31.5" stroke="#070B14" stroke-opacity="0.15"/>
<defs>
<clipPath id="clip0_11313_1812">
<rect y="0.303711" width="64" height="64" rx="32" fill="white"/>
</clipPath>
</defs>
</svg>

<svg xmlns="http://www.w3.org/2000/svg" width="64" height="65" fill="none" viewBox="0 0 64 65"><g clip-path="url(#ali_svg-a)"><rect width="64" height="64" y=".304" fill="#fff" rx="32"/><path fill="#010642" d="M34.829 18.984c-.85-.748-1.775-1.56.9-2.907v-.004c2.986-1.463 1.347-2.795 1.347-2.795-2.578-2.16-6.423-5.455-6.787-7.346h.026c-.026-.1-.026-.206-.026-.311a3 3 0 0 0-.013-.258l-.01-.132c-14.238.844-25.52 12.97-25.52 27.11S15.56 58.101 29.37 59.377c-.038-.237-.417-.69-.473-.755-.476-.69-2.405-3.087-5.009-4.847 0 0-3.286-1.564-.176-3.662 2.003-1.347 1.726-2.104.927-2.941-.428-.45-.968-1.972 1.783-2.003-1.597.016-2.278-1.69-.98-2.18 1.298-.496 2.78-2.056 1.407-3.977-1.598-2.46-.354-3.045 1.938-4.122.738-.347 1.585-.745 2.481-1.273a51 51 0 0 0 2.307-1.43c.653-.438 1.156-.814 1.527-1.151 1.208-1.104 1.088-2.203.327-3.238-.148-.202-.33-.33-.53-.47-.23-.16-.482-.338-.73-.663-.86-1.122-1.183-2.938 1.06-3.985.275-.127.222-1.422-1.046-1.31a.2.2 0 0 0 0-.07c1.04-.244 1.355-.867 1.407-1.201.06-.393-.342-.746-.761-1.115"/><path fill="#29ABE2" d="M31.962.383C14.332.383.042 14.674.042 32.303s14.29 31.92 31.92 31.92 31.92-14.29 31.92-31.92c0-17.629-14.294-31.92-31.92-31.92m3.767 15.694c-3.996 2.011.041 2.833-.139 4.022-.052.334-.368.957-1.407 1.2a.2.2 0 0 1 0 .072c1.268-.112 1.32 1.182 1.047 1.31-2.244 1.046-1.921 2.862-1.062 3.984.465.608.942.698 1.26 1.133.762 1.035.882 2.135-.326 3.238-.371.337-.874.712-1.527 1.151a51 51 0 0 1-2.307 1.43c-3.677 2.168-6.532 2.142-4.42 5.395 1.374 1.92-.108 3.482-1.406 3.977-1.299.491-.616 2.198.982 2.18-2.753.03-2.213 1.553-1.785 2.003.799.837 1.076 1.595-.927 2.941-3.11 2.098.176 3.662.176 3.662 2.604 1.76 4.532 4.157 5.009 4.847.056.064.435.518.473.755C15.56 58.1 4.747 46.482 4.747 32.34c0-14.14 11.281-26.266 25.52-27.11.007.131.022.259.022.39 0 .105 0 .21.026.311h-.026c.364 1.891 4.21 5.185 6.787 7.346 0 0 1.64 1.332-1.347 2.795z"/></g><rect width="63" height="63" x=".5" y=".804" stroke="#070B14" stroke-opacity=".15" rx="31.5"/><defs><clipPath id="ali_svg-a"><rect width="64" height="64" y=".304" fill="#fff" rx="32"/></clipPath></defs></svg>
